_site/assets/img/parceiros/mercur.svg

<?xml version="1.0" encoding="UTF-8"?>
<svg width="665px" height="188px" viewBox="0 0 665 188" version="1.1" xmlns="http://www.w3.org/2000/svg" xmlns:xlink="http://www.w3.org/1999/xlink">
    <!-- Generator: Sketch 47.1 (45422) - http://www.bohemiancoding.com/sketch -->
    <title>mercur</title>
    <desc>Created with Sketch.</desc>
    <defs></defs>
    <g id="Page-1" stroke="none" stroke-width="1" fill="none" fill-rule="evenodd">
        <g id="mercur" fill-rule="nonzero" fill="#000000">
            <g id="Group" transform="translate(192.604167, 149.416667)">
                <g id="Shape" transform="translate(48.854167, 7.916667)">
                    <polygon points="5.78510417 22.5011458 2.03260417 22.5011458 5.4090625 4.95583333 0.4275 6.93104167 0.4275 3.56052083 6.85385417 1.33395833 9.85822917 1.33395833"></polygon>
                    <path d="M13.4444792,30.6276042 C12.7458333,30.6276042 11.7265625,30.5405208 10.9883333,30.4217708 L11.5998958,27.0433333 C12.3816667,27.2095833 13.2841667,27.3303125 14.1569792,27.3303125 C19.9183333,27.3303125 23.6292708,23.9894792 25.9033333,18.4735417 C26.2259375,17.6878125 26.3882292,17.1930208 26.6771875,16.494375 L26.6771875,16.4528125 C24.9948958,18.5942708 22.3586458,19.6669792 19.676875,19.6669792 C14.8991667,19.6669792 12.7102083,16.7002083 12.7102083,12.9041667 C12.7102083,6.64802083 17.2860417,1.00541667 24.0053125,1.00541667 C29.4796875,1.00541667 31.7478125,4.29875 31.7478125,9.20510417 C31.7438542,16.6527083 27.5401042,30.6276042 13.4444792,30.6276042 Z M23.4135417,4.1265625 C19.5007292,4.1265625 16.6665625,7.99979167 16.6665625,12.3282292 C16.6665625,14.6794792 18.1034375,16.3716667 20.6961458,16.3716667 C24.6129167,16.3716667 27.7795833,13.4444792 27.7795833,8.82708333 C27.7795833,6.2284375 26.3842708,4.1265625 23.4135417,4.1265625 Z"></path>
                    <path d="M44.2244792,15.663125 L39.3201042,19.2513542 L39.2785417,19.3325 C40.8895833,19.2078125 45.0933333,19.1702083 49.4633333,19.1702083 L48.7983333,22.503125 L33.5627083,22.503125 L34.0911458,19.5422917 L40.2720833,14.9664583 C45.1804167,11.3841667 46.7875,9.77708333 46.7875,7.1784375 C46.7875,5.73760417 45.920625,4.085 43.32,4.085 C41.1805208,4.085 39.2825,4.78760417 37.7664583,5.77520833 L37.7664583,2.39677083 C39.6526042,1.49229167 42.0929167,0.9559375 44.2759375,0.9559375 C48.7983333,0.9559375 50.9002083,3.38833333 50.9002083,6.35708333 C50.89625,9.986875 48.5073958,12.5776042 44.2244792,15.663125 Z"></path>
                    <path d="M71.3746875,22.5011458 L66.7652083,22.5011458 L65.2392708,30.4217708 L61.6094792,30.4217708 L63.1354167,22.5011458 L51.22875,22.5011458 L51.22875,19.4591667 L65.7320833,1.2884375 L70.8046875,1.2884375 L67.4183333,19.1682292 L72.0357292,19.1682292 L71.3746875,22.5011458 Z M66.4782292,4.78760417 L54.8921875,19.2058333 C57.2830208,19.16625 62.2289583,19.16625 63.8320833,19.16625 L66.5554167,4.785625 L66.4782292,4.785625 L66.4782292,4.78760417 Z"></path>
                </g>
                <g id="Shape">
                    <path d="M16.9539583,23.0513542 C16.4176042,25.8973958 15.88125,28.7335417 15.5982292,30.4178125 L11.9664583,30.4178125 C12.3029167,28.654375 13.0807292,25.9369792 14.3196875,22.1072917 L14.2286458,22.0657292 C12.758125,25.2383333 9.6607292,30.8314583 4.6771875,30.8314583 C1.7203125,30.8314583 0.1092708,28.9453125 0.1092708,24.6228125 C0.1092708,17.0802083 4.0201042,9.63260417 12.96,9.63260417 C13.9852083,9.63260417 14.8045833,9.71770833 15.8377083,9.88395833 L17.6110417,0.368125 L21.2705208,0.368125 L16.9539583,23.0513542 Z M12.3405208,12.5538542 C6.250625,12.5538542 3.8617708,18.8515625 3.8617708,23.9182292 C3.8617708,26.5920833 4.6811458,27.6628125 5.965625,27.6628125 C9.8269792,27.6628125 14.02875,19.4690625 14.97875,14.5745833 L15.2696875,12.9279167 C14.4423958,12.718125 13.4983333,12.5538542 12.3405208,12.5538542 Z"></path>
                    <path d="M25.1101042,21.4046875 C24.9873958,22.0241667 24.9082292,23.0513542 24.9082292,23.7935417 C24.9082292,26.9661458 26.0126042,27.7894792 29.3059375,27.7894792 C31.2435417,27.7894792 33.301875,27.33625 35.0752083,26.5940625 L35.0752083,29.5647917 C33.0901042,30.3465625 30.713125,30.7978125 28.0273958,30.7978125 C23.33875,30.7978125 21.15375,28.7770833 21.15375,24.1676042 C21.15375,16.2192708 25.5613542,9.59104167 32.3498958,9.59104167 C36.7159375,9.59104167 38.3626042,11.8136458 38.3626042,14.2460417 C38.3665625,18.6457292 33.88375,21.0741667 25.1101042,21.4046875 Z M31.9421875,12.3935417 C28.6844792,12.3935417 26.5172917,15.2277083 25.5613542,18.6932292 C31.900625,18.4379167 34.6991667,17.1672917 34.6991667,14.6972917 C34.703125,13.2188542 33.5809375,12.3935417 31.9421875,12.3935417 Z"></path>
                </g>
            </g>
            <path d="M215.657917,49.7557292 L219.455938,30.5578125 L162.265938,30.5578125 L144.910625,121.724167 L202.130313,121.724167 L205.771979,102.142292 L173.127604,102.142292 L176.525833,84.5534375 L207.539375,84.5534375 L211.000938,66.0779167 L180.175417,66.0779167 L183.179792,49.7557292 L215.657917,49.7557292 Z M300.312813,52.4948958 C300.312813,37.6709375 289.478854,29.8354167 268.962813,29.8354167 C257.182813,29.8354167 241.945208,30.0095833 233.4625,30.4865625 L216.271458,121.722187 L240.666667,121.722187 L248.130104,83.0373958 L262.156458,121.722187 L290.973125,121.722187 C288.315104,115.444271 274.480729,83.1996875 274.480729,83.1996875 L276.056146,82.7939583 C287.246354,79.9558333 300.312813,70.3192708 300.312813,52.4948958 Z M257.80625,72.0332292 C255.257083,72.0332292 253.392708,72.0332292 251.698542,71.8392708 L250.303229,71.6789583 L254.532708,48.791875 L255.496563,48.6751042 C257.374792,48.4910417 259.591458,48.4910417 262.130729,48.4910417 C270.554062,48.4910417 273.536667,53.0747917 273.536667,57.3794792 C273.532708,65.5870833 266.627396,72.0332292 257.80625,72.0332292 Z M442.692083,30.5558333 C441.284896,37.9183333 432.810104,82.1507292 432.810104,82.1507292 C429.942292,96.5986458 423.155729,103.04875 410.778021,103.04875 C404.925625,103.04875 400.921771,101.639583 398.542813,98.761875 C395.908542,95.5635417 395.300937,90.5483333 396.686354,83.4589583 L406.67125,30.5578125 L382.276042,30.5578125 C380.785729,38.365625 371.293646,88.1020833 371.293646,88.1020833 C369.265,98.7064583 370.71375,107.078333 375.608229,112.994062 C381.367604,119.970625 391.869063,123.511354 406.815729,123.511354 C433.433542,123.511354 451.829896,110.159896 456.021771,87.7814583 C456.021771,87.7814583 465.131875,39.8183333 466.883438,30.5538542 L442.692083,30.5538542 L442.692083,30.5558333 Z M544.274792,52.4948958 C544.274792,37.6709375 533.452708,29.8354167 512.942604,29.8354167 C501.150729,29.8354167 485.897292,30.0095833 477.440313,30.4865625 L460.245313,121.722187 L484.620729,121.722187 L492.090104,83.0373958 L506.132292,121.722187 L534.952917,121.722187 C532.279063,115.444271 518.446667,83.1996875 518.446667,83.1996875 L520.016146,82.7939583 C531.212292,79.9558333 544.274792,70.3192708 544.274792,52.4948958 Z M501.780104,72.0332292 C499.223021,72.0332292 497.370521,72.0332292 495.678333,71.8392708 L494.277083,71.6789583 L498.500625,48.791875 L499.476354,48.6751042 C501.342708,48.4910417 503.559375,48.4910417 506.104583,48.4910417 C514.512083,48.4910417 517.500625,53.0747917 517.500625,57.3794792 C517.498646,65.5870833 510.587396,72.0332292 501.780104,72.0332292 Z M356.600312,49.9298958 C361.132604,49.9298958 365.904375,50.8126042 369.767708,52.2534375 L375.889271,30.6904167 C371.295625,29.4514583 365.079062,28.7508333 358.5775,28.7508333 C318.093646,28.7508333 299.655729,59.9484375 299.655729,88.929375 C299.655729,111.323646 313.3575,123.151146 339.284583,123.151146 C344.800521,123.151146 352.240208,122.114062 359.365208,120.334792 L361.746146,98.7222917 C356.764583,100.283854 351.802812,101.059687 346.320521,101.059687 C334.277292,101.059687 326.794062,94.344375 326.794062,83.5203125 C326.794062,69.5671875 336.040729,49.9298958 356.600312,49.9298958 Z M110.253438,11.4113542 C107.284688,17.2716667 75.1647917,82.2496875 74.8263542,82.9503125 L67.85375,11.8566667 L67.7429167,10.7186458 L38.9935417,10.7186458 L38.6986458,11.56375 L0.924270833,120.0775 L0.342395833,121.753854 L26.4139583,121.753854 L26.6890625,120.863229 C28.61875,114.719896 47.6425,51.4419792 47.8602083,50.7433333 L54.8367708,120.605937 L54.9495833,121.753854 L78.9232292,121.753854 L79.2695833,121.039375 C82.0364583,115.3275 111.894167,52.2316667 112.224688,51.5409375 L108.549375,120.425833 L108.482083,121.755833 L135.535313,121.755833 L135.578854,120.520833 L138.800938,12.0288542 L138.838542,10.7245833 L110.601771,10.7245833 L110.253438,11.4113542 Z" id="Shape"></path>
            <path d="M605.334062,34.3479167 C605.813021,36.7565625 608.839167,36.4695833 611.138958,36.8575 C611.326979,36.8891667 611.566458,36.916875 611.792083,36.9327083 C610.887604,37.2335417 610.008854,37.7144792 609.151875,38.4091667 C608.550208,38.8821875 611.138958,38.63875 611.336875,39.3176042 C612.181979,42.0923958 611.374479,42.415 612.259167,43.0404167 C613.363542,43.8320833 616.708333,43.8023958 617.800833,43.1116667 C618.812187,42.4664583 617.595,41.8489583 618.982396,38.9672917 C619.178333,38.5853125 621.234687,38.2330208 620.852708,38.0845833 C618.974479,37.3364583 617.222917,36.7822917 615.558437,36.5922917 C616.340208,36.4438542 617.050729,36.2934375 617.630625,36.1489583 C619.857187,35.5591667 623.354375,35.6680208 625.317708,35.6680208 C618.208542,32.1411458 607.621979,36.0025 605.334062,34.3479167 M617.539583,39.291875 C617.745417,40.4833333 617.577187,42.0607292 616.338229,42.4545833 C613.759375,43.29375 611.617917,41.5204167 612.690625,39.291875 C613.646562,39.9548958 613.39125,41.4828125 614.717292,41.8410417 C616.801354,42.0211458 615.819687,39.529375 617.539583,39.291875 M616.494583,0.399270833 C589.785729,0.399270833 568.1475,22.0355208 568.1475,48.720625 C568.1475,75.4334375 589.785729,97.06375 616.494583,97.06375 C643.179687,97.06375 664.835729,75.4334375 664.835729,48.720625 C664.835729,22.0355208 643.183646,0.399270833 616.494583,0.399270833 M596.109167,39.2997917 C596.374375,39.8480208 595.984479,41.01375 596.853333,41.1107292 C597.868646,41.239375 598.688021,40.1627083 598.228854,38.9494792 C597.90625,38.128125 598.961146,38.7832292 599.121458,39.1038542 C599.673646,40.2220833 599.216458,41.4590625 597.534167,41.8113542 C596.318958,42.0726042 595.323437,41.7104167 595.08,40.4813542 C594.858333,39.386875 594.060729,39.25625 593.708437,39.1058333 C593.965729,38.6763542 595.675729,38.4725 596.109167,39.2997917 M595.566875,69.359375 C592.788125,64.4886458 589.231562,54.8144792 591.830208,49.9397917 C593.110729,56.3720833 594.135937,63.0854167 595.566875,69.359375 M574.494687,47.6558333 C574.94,32.9644792 581.595937,20.1117708 592.568437,11.7953125 C592.750521,11.6567708 593.130521,11.4232292 593.686667,11.1402083 C590.866354,13.4241667 588.625937,16.278125 587.571042,19.9138542 C585.781875,25.9839583 591.543229,27.9492708 590.434896,33.6670833 C590.393333,33.8471875 589.805521,37.1761458 589.773854,37.344375 C589.942083,38.5219792 592.982083,40.5051042 590.78125,45.3758333 C588.780312,49.8071875 586.033229,57.0925 587.248437,62.00875 C589.269167,70.2519792 594.286354,73.8283333 600.776042,78.9009375 C598.094271,79.8073958 593.716354,81.6955208 589.9975,83.8290625 C580.230312,75.368125 574.043437,62.2304167 574.494687,47.6558333 M635.540104,73.02875 C635.892396,78.7584375 635.274896,85.1234375 633.717292,89.8338542 C633.859792,89.7725 634.00625,89.6913542 634.162604,89.6102083 C633.832083,90.2672917 633.491667,90.8808333 633.131458,91.4310417 C627.643229,93.7565625 621.292083,94.3008333 615.144792,93.9247917 L615.099271,93.8673958 C608.294896,93.6536458 602.007083,91.7239583 596.455521,88.46625 C598.036875,85.4598958 600.942292,82.6534375 603.208437,81.91125 C604.669062,83.2234375 608.64125,85.3114583 612.146354,87.0194792 C613.733646,82.5069792 618.09375,77.4244792 624.417187,76.6308333 C626.701146,76.341875 631.098854,68.3321875 629.962812,65.6207292 C629.179062,69.0763542 624.189583,73.2365625 622.447917,74.2241667 C620.688437,75.2097917 615.637604,75.1741667 611.511042,75.6630208 C608.027708,76.056875 603.529062,76.3913542 600.679062,73.8758333 C598.678125,72.1044792 601.795312,69.4227083 603.305417,68.1144792 C605.243021,66.4579167 608.065312,67.5029167 609.63875,68.5578125 C610.610521,62.0582292 603.572604,65.7117708 600.336667,63.7504167 C597.611354,62.1116667 602.68,62.38875 604.566146,62.4738542 C607.289479,62.6025 612.290833,62.6519792 615.702917,61.2032292 C613.100312,60.75 609.518021,61.545625 606.385,59.8534375 C604.279167,60.500625 601.051146,61.7534375 600.152604,58.5669792 C602.885833,59.6357292 604.091146,58.0048958 605.967396,56.40375 C607.271667,57.7317708 609.931667,57.1261458 610.131562,55.1014583 C608.399792,55.0123958 605.250937,56.154375 602.8225,55.9426042 C600.906667,55.7822917 598.595,53.8288542 599.469792,51.6379167 C599.841875,50.7215625 600.720625,49.7003125 601.110521,48.4019792 C602.505833,43.6203125 603.661667,35.9747917 600.78,35.8085417 C598.767187,35.6996875 596.910729,35.5928125 595.558958,35.1534375 C595.258125,26.1363542 604.728437,24.923125 608.64125,23.8147917 C612.934062,22.5698958 617.610833,18.6036458 619.120937,15.3815625 C616.678646,16.12375 612.542187,16.5116667 613.606979,13.8378125 C616.453021,6.77614583 637.944792,7.33229167 641.645833,20.1414583 C640.218854,17.798125 633.495625,14.449375 630.524896,15.8169792 C634.166562,17.1529167 637.477708,21.5308333 637.64,27.131875 C632.531771,20.0108333 623.279167,17.6378125 619.675104,22.2057292 C625.058437,20.9192708 631.938021,24.0978125 632.743542,35.1672917 C633.608437,46.8285417 631.079062,57.0905208 633.84,62.8815625 C638.825521,73.5116667 650.403646,73.5651042 652.562917,62.6222917 C653.885,55.9247917 651.147812,52.4355208 648.711458,48.4732292 C652.315521,52.045625 656.90125,55.8377083 654.639062,66.0798958 C652.877604,74.02625 643.436979,79.0236458 635.540104,73.02875" id="Shape"></path>
        </g>
    </g>
</svg>

<svg width="665" height="188" viewBox="0 0 665 188" xmlns="http://www.w3.org/2000/svg"><title>mercur</title><path d="M247.243 179.834h-3.752l3.376-17.545-4.981 1.975v-3.37l6.426-2.227h3.005zm7.66 8.126c-.699 0-1.718-.086-2.456-.205l.611-3.378c.782.166 1.685.287 2.557.287 5.762 0 9.473-3.341 11.747-8.857.322-.786.485-1.28.774-1.98v-.04c-1.683 2.14-4.319 3.213-7 3.213-4.778 0-6.967-2.966-6.967-6.762 0-6.257 4.575-11.9 11.295-11.9 5.474 0 7.742 3.294 7.742 8.2-.004 7.448-4.208 21.423-18.303 21.423zm9.969-26.5c-3.913 0-6.747 3.873-6.747 8.202 0 2.35 1.437 4.043 4.03 4.043 3.916 0 7.083-2.927 7.083-7.545 0-2.598-1.395-4.7-4.366-4.7zm20.811 11.536l-4.905 3.589-.041.08c1.61-.124 5.815-.161 10.185-.161l-.665 3.332H275.02l.528-2.96 6.181-4.576c4.909-3.582 6.516-5.19 6.516-7.788 0-1.441-.867-3.094-3.468-3.094-2.14 0-4.037.703-5.553 1.69v-3.378c1.886-.904 4.326-1.44 6.51-1.44 4.522 0 6.624 2.432 6.624 5.4-.004 3.63-2.393 6.22-6.676 9.306zm27.15 6.838h-4.61l-1.525 7.921h-3.63l1.526-7.92h-11.907v-3.042l14.503-18.171h5.073l-3.386 17.88h4.617l-.661 3.332zm-4.896-17.713l-11.586 14.418c2.39-.04 7.336-.04 8.94-.04l2.723-14.38h-.077v.002zm-98.379 10.347c-.536 2.846-1.073 5.682-1.356 7.366h-3.631c.336-1.763 1.114-4.48 2.353-8.31l-.091-.042c-1.47 3.173-4.568 8.766-9.552 8.766-2.957 0-4.568-1.886-4.568-6.209 0-7.542 3.911-14.99 12.851-14.99 1.025 0 1.845.085 2.878.252l1.773-9.516h3.66l-4.317 22.683zm-4.613-10.497c-6.09 0-8.48 6.297-8.48 11.364 0 2.674.82 3.744 2.105 3.744 3.861 0 8.063-8.193 9.013-13.088l.29-1.646a11.607 11.607 0 0 0-2.928-.374zm12.769 8.85c-.122.62-.202 1.647-.202 2.39 0 3.172 1.105 3.995 4.398 3.995 1.938 0 3.996-.453 5.77-1.195v2.97c-1.986.782-4.363 1.233-7.048 1.233-4.69 0-6.874-2.02-6.874-6.63 0-7.948 4.408-14.576 11.196-14.576 4.366 0 6.013 2.222 6.013 4.655.004 4.4-4.48 6.828-13.253 7.158zm6.832-9.01c-3.257 0-5.425 2.833-6.38 6.299 6.339-.255 9.137-1.526 9.137-3.996.004-1.478-1.118-2.304-2.757-2.304zm-8.888-112.055l3.798-19.198h-57.19l-17.355 91.166h57.22l3.641-19.582h-32.644l3.398-17.589h31.013l3.462-18.475h-30.826l3.005-16.322h32.478zm84.655 2.739c0-14.824-10.834-22.66-31.35-22.66-11.78 0-27.018.175-35.5.652l-17.192 91.235h24.396l7.463-38.685 14.026 38.685h28.817c-2.658-6.278-16.492-38.522-16.492-38.522l1.575-.406c11.19-2.838 24.257-12.475 24.257-30.3zm-42.507 19.538c-2.549 0-4.413 0-6.107-.194l-1.396-.16 4.23-22.887.964-.117c1.878-.184 4.094-.184 6.634-.184 8.423 0 11.406 4.584 11.406 8.888-.004 8.208-6.91 14.654-15.73 14.654zm184.886-41.477c-1.407 7.362-9.882 51.595-9.882 51.595-2.868 14.448-9.654 20.898-22.032 20.898-5.852 0-9.856-1.41-12.235-4.287-2.634-3.198-3.242-8.214-1.857-15.303l9.985-52.901h-24.395l-10.982 57.544c-2.029 10.604-.58 18.976 4.314 24.892 5.76 6.977 16.261 10.517 31.208 10.517 26.618 0 45.014-13.351 49.206-35.73 0 0 9.11-47.963 10.861-57.227h-24.19v.002zm101.583 21.939c0-14.824-10.822-22.66-31.332-22.66-11.792 0-27.046.175-35.503.652l-17.195 91.235h24.376l7.47-38.685 14.041 38.685h28.82A37236.9 37236.9 0 0 0 518.447 83.2l1.57-.406c11.195-2.838 24.258-12.475 24.258-30.3zM501.78 72.033c-2.557 0-4.41 0-6.102-.194l-1.4-.16 4.223-22.887.975-.117c1.867-.184 4.083-.184 6.629-.184 8.407 0 11.396 4.584 11.396 8.888-.002 8.208-6.914 14.654-15.72 14.654zM356.6 49.93c4.533 0 9.304.883 13.168 2.323l6.121-21.563c-4.593-1.239-10.81-1.94-17.312-1.94-40.483 0-58.921 31.198-58.921 60.18 0 22.394 13.702 34.221 39.629 34.221 5.516 0 12.955-1.037 20.08-2.816l2.381-21.613c-4.981 1.562-9.943 2.338-15.425 2.338-12.044 0-19.527-6.716-19.527-17.54 0-13.953 9.247-33.59 29.806-33.59zM110.253 11.41c-2.968 5.86-35.088 70.839-35.427 71.54l-6.972-71.094-.111-1.138h-28.75l-.294.845L.924 120.078l-.582 1.676h26.072l.275-.89c1.93-6.144 20.953-69.422 21.171-70.12l6.977 69.862.113 1.148h23.973l.347-.715c2.766-5.712 32.624-68.807 32.955-69.498l-3.676 68.885-.067 1.33h27.053l.044-1.235L138.8 12.029l.038-1.304h-28.237l-.349.686zm495.081 22.938c.479 2.409 3.505 2.122 5.805 2.51.188.031.427.059.653.075-.904.3-1.783.781-2.64 1.476-.602.473 1.987.23 2.185.909.845 2.774.037 3.097.922 3.722 1.105.792 4.45.762 5.542.072 1.011-.646-.206-1.263 1.181-4.145.196-.382 2.253-.734 1.87-.882-1.878-.749-3.63-1.303-5.294-1.493a38.832 38.832 0 0 0 2.073-.443c2.226-.59 5.723-.481 7.687-.481-7.11-3.527-17.696.334-19.984-1.32m12.206 4.944c.205 1.191.037 2.769-1.202 3.163-2.579.839-4.72-.935-3.647-3.163.956.663.7 2.19 2.026 2.549 2.084.18 1.103-2.312 2.823-2.55M616.495.4c-26.71 0-48.347 21.637-48.347 48.322 0 26.712 21.638 48.343 48.347 48.343 26.685 0 48.34-21.63 48.34-48.343C664.835 22.037 643.184.4 616.495.4m-20.386 38.9c.265.549-.125 1.715.744 1.812 1.016.128 1.835-.948 1.376-2.162-.323-.82.732-.166.892.155.553 1.118.095 2.355-1.587 2.707-1.215.262-2.21-.1-2.454-1.33-.222-1.094-1.02-1.225-1.372-1.375.258-.43 1.968-.634 2.401.194m-.542 30.06c-2.779-4.871-6.335-14.546-3.737-19.42 1.28 6.432 2.306 13.145 3.737 19.42m-21.072-21.704c.445-14.692 7.1-27.544 18.073-35.86.183-.14.563-.373 1.119-.656-2.82 2.284-5.061 5.138-6.116 8.774-1.79 6.07 3.972 8.035 2.864 13.753-.042.18-.63 3.51-.661 3.677.168 1.178 3.208 3.161 1.007 8.032-2 4.431-4.748 11.717-3.533 16.633 2.021 8.243 7.038 11.82 13.528 16.892-2.682.906-7.06 2.795-10.779 4.928-9.767-8.46-15.954-21.599-15.502-36.173M635.54 73.03c.352 5.73-.265 12.094-1.823 16.805.143-.062.29-.143.446-.224-.33.657-.671 1.27-1.032 1.821-5.488 2.326-11.839 2.87-17.986 2.494l-.046-.058c-6.804-.213-13.092-2.143-18.643-5.4 1.58-3.007 4.486-5.814 6.752-6.556 1.461 1.312 5.433 3.4 8.938 5.108 1.588-4.512 5.948-9.595 12.271-10.388 2.284-.29 6.682-8.299 5.546-11.01-.784 3.455-5.773 7.616-7.515 8.603-1.76.986-6.81.95-10.937 1.439-3.483.394-7.982.728-10.832-1.787-2-1.772 1.116-4.453 2.626-5.762 1.938-1.656 4.76-.611 6.334.444.972-6.5-6.066-2.846-9.302-4.808-2.726-1.638 2.343-1.361 4.23-1.276 2.722.129 7.724.178 11.136-1.27-2.603-.454-6.185.342-9.318-1.35-2.106.647-5.334 1.9-6.232-1.287 2.733 1.069 3.938-.562 5.814-2.163 1.305 1.328 3.965.722 4.165-1.303-1.732-.089-4.881 1.053-7.31.842-1.915-.16-4.227-2.114-3.352-4.305.372-.916 1.25-1.938 1.64-3.236 1.396-4.782 2.552-12.427-.33-12.593-2.013-.11-3.87-.216-5.221-.656-.3-9.017 9.17-10.23 13.082-11.338 4.293-1.245 8.97-5.211 10.48-8.433-2.442.742-6.579 1.13-5.514-1.544 2.846-7.062 24.338-6.506 28.039 6.303-1.427-2.343-8.15-5.692-11.121-4.324 3.642 1.336 6.953 5.714 7.115 11.315-5.108-7.121-14.36-9.494-17.965-4.926 5.383-1.287 12.263 1.892 13.069 12.961.864 11.662-1.665 21.924 1.096 27.715 4.986 10.63 16.564 10.683 18.723-.26 1.322-6.697-1.415-10.186-3.852-14.149 3.605 3.573 8.19 7.365 5.928 17.607-1.761 7.946-11.202 12.944-19.099 6.949"/></svg>
